public/Cpanel-vs.svg

<svg width="206" height="83" viewBox="0 0 206 83" fill="none" xmlns="http://www.w3.org/2000/svg">
<g clip-path="url(#clip0_9_78372)">
<mask id="mask0_9_78372" style="mask-type:luminance" maskUnits="userSpaceOnUse" x="0" y="16" width="206" height="51">
<path d="M205.65 16.3672H0V66.9504H205.65V16.3672Z" fill="white"/>
</mask>
<g mask="url(#mask0_9_78372)">
<mask id="mask1_9_78372" style="mask-type:luminance" maskUnits="userSpaceOnUse" x="0" y="16" width="206" height="51">
<path d="M205.65 16.3672H0V66.9504H205.65V16.3672Z" fill="white"/>
</mask>
<g mask="url(#mask1_9_78372)">
<path d="M18.3228 36.5374C16.9205 36.4868 15.5358 36.863 14.3526 37.6164C13.2822 38.3352 12.3883 39.2863 11.7378 40.3986C11.052 41.5614 10.5699 42.8324 10.3121 44.157C10.0338 45.4961 9.89267 46.8599 9.89077 48.2275C9.89398 49.5606 10.0352 50.8899 10.3121 52.194C10.5645 53.4767 11.0225 54.7103 11.6687 55.8472C12.2877 56.9303 13.159 57.8486 14.2086 58.5242C15.3782 59.248 16.7357 59.6107 18.1109 59.567C19.1108 59.6313 20.1131 59.488 21.0547 59.1459C21.9963 58.8039 22.8568 58.2705 23.5816 57.5796C24.9283 56.1054 25.7699 54.2412 25.9845 52.2571H35.5273C34.8749 57.036 33.0178 60.6775 29.9559 63.1815C26.598 65.7828 22.4271 67.1141 18.1811 66.9399C15.6439 66.9684 13.1251 66.5075 10.7628 65.5827C8.60004 64.7375 6.6405 63.4456 5.01235 61.7916C3.40313 60.1235 2.14754 58.1482 1.32075 55.9839C0.419658 53.6198 -0.028635 51.1077 -0.000725761 48.5782C-0.0252426 45.9425 0.386846 43.3209 1.21888 40.8195C1.97291 38.529 3.19404 36.4193 4.80518 34.6237C6.4135 32.8636 8.38608 31.4742 10.586 30.552C13.0612 29.5409 15.7169 29.0445 18.3906 29.0931C20.4734 29.0865 22.5471 29.367 24.5531 29.9266C26.4569 30.45 28.2511 31.3104 29.8506 32.4669C31.4005 33.5994 32.6942 35.0453 33.6475 36.7104C34.6649 38.5599 35.2364 40.6209 35.3166 42.7297H25.6323C24.9799 38.5991 22.5422 36.5339 18.3192 36.5339" fill="#FF6D2D"/>
<path d="M59.3547 16.3667C62.0653 16.2946 64.7637 16.7557 67.2962 17.7239C69.3139 18.5146 71.1338 19.7372 72.6276 21.3058C73.9815 22.7627 75.0037 24.4951 75.6239 26.384C76.2494 28.2933 76.5655 30.2902 76.5604 32.2992C76.5601 34.2966 76.2441 36.2815 75.6239 38.1805C75.0098 40.0822 73.9872 41.8269 72.6276 43.2926C71.1341 44.8622 69.3143 46.0857 67.2962 46.8768C64.7634 47.8439 62.0653 48.305 59.3547 48.234H47.8608V66.0451H36.9229V16.362L59.3547 16.3667ZM56.3571 39.747C57.572 39.7498 58.7854 39.6563 59.9855 39.4676C61.068 39.311 62.1093 38.9444 63.0509 38.3886C63.9492 37.839 64.6833 37.0586 65.1765 36.1289C65.7588 34.9393 66.0347 33.6234 65.9794 32.3004C66.0348 30.9781 65.7589 29.6629 65.1765 28.4742C64.6839 27.5441 63.9496 26.7635 63.0509 26.2145C62.1096 25.6581 61.0682 25.2915 59.9855 25.1355C58.7854 24.9462 57.5721 24.8524 56.3571 24.8549H47.8608V39.747H56.3571Z" fill="#FF6D2D"/>
<path d="M77.6074 35.3624C78.6071 33.851 79.9416 32.5895 81.5074 31.6753C83.1604 30.7201 84.9622 30.0483 86.8376 29.688C88.7985 29.2961 90.7932 29.0984 92.7929 29.0977C94.6332 29.0992 96.4713 29.2273 98.294 29.4811C100.057 29.708 101.772 30.2123 103.377 30.9751C104.869 31.6826 106.163 32.7467 107.144 34.073C108.184 35.6215 108.696 37.4641 108.603 39.3265V58.0518C108.599 59.6098 108.693 61.1665 108.885 62.7127C108.971 63.8819 109.303 65.02 109.859 66.0525H99.8262C99.639 65.4947 99.4881 64.9254 99.3744 64.3481C99.2563 63.7622 99.175 63.1696 99.1309 62.5735C97.5979 64.1702 95.678 65.3444 93.5572 65.9824C91.4354 66.6308 89.2286 66.9594 87.0097 66.9573C85.3861 66.9709 83.7685 66.7605 82.2026 66.3319C80.7842 65.9492 79.4569 65.2866 78.2991 64.3832C77.1763 63.4922 76.2817 62.3475 75.689 61.0433C75.0304 59.5306 74.7108 57.8924 74.7527 56.2433C74.6863 54.4985 75.0581 52.7648 75.8342 51.2002C76.4984 49.9398 77.4523 48.8545 78.6175 48.0334C79.8062 47.2217 81.1264 46.6213 82.5198 46.2588C83.9766 45.8678 85.4535 45.5556 86.9441 45.3236C88.4329 45.0898 89.8968 44.9039 91.3356 44.766C92.6254 44.6512 93.905 44.4422 95.1642 44.1405C96.1254 43.9332 97.0293 43.5174 97.8118 42.9224C98.1414 42.6369 98.3961 42.2753 98.5538 41.8691C98.7114 41.4628 98.7674 41.0242 98.7166 40.5914C98.7584 39.7142 98.5785 38.8406 98.1933 38.0511C97.8691 37.4485 97.3884 36.9442 96.8017 36.591C96.1818 36.2262 95.4955 35.9878 94.7826 35.8896C93.9635 35.7687 93.1363 35.7101 92.3083 35.7143C90.6802 35.6221 89.0663 36.062 87.7108 36.9675C87.1064 37.4842 86.6196 38.124 86.2831 38.844C85.9466 39.564 85.7681 40.3475 85.7596 41.142H75.8658C75.9209 39.0958 76.523 37.1015 77.6097 35.3659M97.1563 49.3169C96.4935 49.5338 95.8175 49.7088 95.1326 49.8406C94.4132 49.9786 93.6594 50.0955 92.8713 50.1914C92.0824 50.2884 91.2912 50.3983 90.4999 50.5421C89.7578 50.681 89.0251 50.8669 88.3065 51.0985C87.6331 51.3059 86.9982 51.6218 86.4268 52.0337C85.892 52.4311 85.4522 52.9422 85.1392 53.5301C84.7921 54.2442 84.6257 55.0326 84.6547 55.826C84.6314 56.5949 84.7978 57.3576 85.1392 58.0471C85.4489 58.6298 85.9062 59.1211 86.4654 59.4722C87.0642 59.8341 87.725 60.0822 88.4142 60.204C89.1729 60.343 89.9428 60.4123 90.7141 60.4109C92.283 60.4997 93.8468 60.1637 95.2403 59.4383C96.2196 58.8799 97.0361 58.076 97.6093 57.1061C98.0987 56.2597 98.4169 55.3255 98.5457 54.3565C98.6474 53.6203 98.7053 52.8786 98.7189 52.1354V48.4472C98.2632 48.8418 97.7308 49.1383 97.1551 49.3181" fill="#FF6D2D"/>
<path d="M122.19 30.0744V35.0848H122.401C123.532 33.1111 125.231 31.5226 127.277 30.5256C129.186 29.5948 131.282 29.1073 133.406 29.0994C135.628 29.0244 137.842 29.3912 139.92 30.1784C141.496 30.8062 142.877 31.8381 143.925 33.1699C144.948 34.5519 145.651 36.1434 145.983 37.8296C146.39 39.8339 146.586 41.8752 146.568 43.9202V66.0449H136.674V45.7298C136.828 43.429 136.347 41.1302 135.283 39.084C134.353 37.6242 132.705 36.894 130.339 36.8932C127.644 36.8932 125.693 37.6928 124.486 39.292C123.28 40.8913 122.677 43.5247 122.677 47.1922V66.0461H112.784V30.0744H122.19Z" fill="#FF6D2D"/>
<path d="M161.205 57.4187C162.079 58.1811 163.095 58.764 164.195 59.1338C165.294 59.5037 166.456 59.6534 167.614 59.5744C169.444 59.6237 171.245 59.1019 172.764 58.0816C173.983 57.3585 174.917 56.2405 175.411 54.9135H184.121C182.727 59.2272 180.59 62.3126 177.71 64.1698C174.573 66.0962 170.94 67.0633 167.259 66.952C164.643 66.9909 162.043 66.5311 159.599 65.5972C157.41 64.7527 155.435 63.4353 153.816 61.7394C152.202 60.0139 150.958 57.9771 150.16 55.7541C149.277 53.3001 148.841 50.708 148.873 48.1005C148.851 45.5365 149.3 42.9902 150.195 40.5873C151.03 38.3471 152.311 36.2991 153.96 34.5669C155.611 32.8587 157.589 31.4984 159.776 30.5665C162.145 29.57 164.696 29.0729 167.267 29.1064C170.042 29.0405 172.793 29.6495 175.281 30.881C177.495 32.0131 179.415 33.6444 180.888 35.6459C182.376 37.6933 183.453 40.0088 184.06 42.4647C184.717 45.078 184.954 47.779 184.762 50.4666H158.778C158.915 53.6674 159.727 55.9867 161.214 57.4246M172.398 38.4994C171.688 37.8099 170.84 37.2794 169.908 36.9434C168.977 36.6074 167.985 36.4735 166.998 36.5507C165.64 36.5037 164.29 36.7781 163.059 37.3515C162.09 37.8251 161.235 38.5031 160.554 39.3388C159.949 40.0765 159.499 40.928 159.23 41.8428C158.993 42.6126 158.842 43.406 158.778 44.2089H174.866C174.586 42.1155 173.732 40.1402 172.398 38.5018" fill="#FF6D2D"/>
<path d="M197.29 16.3672H187.396V66.0468H197.29V16.3672Z" fill="#FF6D2D"/>
<path d="M199.955 19.3587C200.106 19.0111 200.323 18.6959 200.594 18.4304C200.868 18.166 201.19 17.9557 201.543 17.8109C201.908 17.6619 202.299 17.5868 202.693 17.5899C203.084 17.5873 203.472 17.6624 203.834 17.8109C204.182 17.957 204.5 18.1672 204.77 18.4304C205.039 18.6963 205.255 19.0114 205.404 19.3587C205.567 19.7236 205.65 20.1189 205.647 20.5183C205.65 20.9234 205.568 21.3246 205.404 21.6955C205.255 22.0447 205.039 22.3621 204.77 22.6307C204.501 22.8953 204.183 23.1053 203.834 23.2491C203.472 23.3972 203.084 23.4722 202.693 23.4701C202.299 23.4727 201.908 23.3976 201.543 23.2491C201.19 23.1066 200.867 22.8965 200.594 22.6307C200.323 22.3626 200.106 22.0452 199.955 21.6955C199.798 21.3231 199.718 20.9225 199.721 20.5183C199.718 20.1198 199.798 19.7251 199.955 19.3587ZM200.441 21.5213C200.554 21.8204 200.729 22.093 200.952 22.3221C201.17 22.5496 201.432 22.7302 201.722 22.8528C202.029 22.9837 202.359 23.0494 202.693 23.0457C203.02 23.0486 203.344 22.9828 203.644 22.8528C203.933 22.7283 204.195 22.5479 204.414 22.3221C204.637 22.0914 204.811 21.8193 204.928 21.5213C205.051 21.2014 205.113 20.8611 205.111 20.5183C205.113 20.1816 205.051 19.8476 204.928 19.534C204.811 19.2389 204.636 18.9699 204.414 18.7426C204.195 18.5177 203.933 18.3382 203.644 18.2142C203.344 18.0838 203.02 18.0177 202.693 18.0201C202.359 18.0168 202.029 18.0829 201.722 18.2142C201.432 18.3363 201.17 18.5161 200.952 18.7426C200.729 18.9686 200.555 19.2379 200.441 19.534C200.315 19.8469 200.252 20.1813 200.256 20.5183C200.252 20.8614 200.315 21.2021 200.441 21.5213ZM202.869 18.808C203.192 18.7822 203.514 18.8686 203.78 19.0524C203.884 19.1443 203.964 19.259 204.016 19.3874C204.068 19.5158 204.089 19.6544 204.078 19.7924C204.09 19.9183 204.072 20.0452 204.027 20.1634C203.982 20.2815 203.91 20.3877 203.817 20.4739C203.633 20.624 203.406 20.7138 203.169 20.7311L204.157 22.2508H203.582L202.646 20.7697H202.077V22.2508H201.541V18.808H202.869ZM202.635 20.3371C202.749 20.3394 202.863 20.3351 202.977 20.3242C203.076 20.3188 203.174 20.2963 203.266 20.2576C203.348 20.2221 203.418 20.1631 203.466 20.0881C203.52 19.9909 203.545 19.8809 203.54 19.7701C203.546 19.6732 203.522 19.5768 203.471 19.4943C203.43 19.4266 203.371 19.3715 203.301 19.3353C203.224 19.2973 203.141 19.2724 203.055 19.2616C202.965 19.2486 202.873 19.242 202.782 19.2417H202.072V20.3359L202.635 20.3371Z" fill="#2B2523"/>
</g>
</g>
</g>
<defs>
<clipPath id="clip0_9_78372">
<rect width="206" height="83" fill="white"/>
</clipPath>
</defs>
</svg>

<svg xmlns="http://www.w3.org/2000/svg" width="206" height="83" fill="none" viewBox="0 0 206 83"><g clip-path="url(#a)"><mask id="b" width="206" height="51" x="0" y="16" maskUnits="userSpaceOnUse" style="mask-type:luminance"><path fill="#fff" d="M205.65 16.367H0V66.95h205.65z"/></mask><g mask="url(#b)"><mask id="c" width="206" height="51" x="0" y="16" maskUnits="userSpaceOnUse" style="mask-type:luminance"><path fill="#fff" d="M205.65 16.367H0V66.95h205.65z"/></mask><g mask="url(#c)"><path fill="#ff6d2d" d="M18.323 36.537a6.93 6.93 0 0 0-3.97 1.08 8.55 8.55 0 0 0-2.615 2.782 11.9 11.9 0 0 0-1.426 3.758 20 20 0 0 0-.421 4.07c.003 1.334.144 2.663.421 3.967.253 1.283.71 2.516 1.357 3.653a7.8 7.8 0 0 0 2.54 2.677 7 7 0 0 0 3.902 1.043 7.26 7.26 0 0 0 5.47-1.987 9.4 9.4 0 0 0 2.404-5.323h9.542q-.979 7.168-5.571 10.925A18.02 18.02 0 0 1 18.18 66.94a19.7 19.7 0 0 1-7.418-1.357 16.5 16.5 0 0 1-5.75-3.791 17.2 17.2 0 0 1-3.692-5.808 20.2 20.2 0 0 1-1.322-7.406 23.9 23.9 0 0 1 1.22-7.759c.754-2.29 1.975-4.4 3.586-6.195a16.4 16.4 0 0 1 5.781-4.072 19.7 19.7 0 0 1 7.805-1.459 22.7 22.7 0 0 1 6.162.834 16.5 16.5 0 0 1 5.298 2.54 13.7 13.7 0 0 1 3.797 4.243 13.56 13.56 0 0 1 1.669 6.02h-9.685q-.978-6.196-7.313-6.196M59.355 16.367c2.71-.072 5.409.389 7.941 1.357a14.8 14.8 0 0 1 5.332 3.582 13.8 13.8 0 0 1 2.996 5.078c.625 1.91.942 3.906.936 5.915 0 1.998-.316 3.983-.936 5.882a13.7 13.7 0 0 1-2.996 5.112 14.8 14.8 0 0 1-5.332 3.584 20.7 20.7 0 0 1-7.941 1.357H47.86v17.811H36.923V16.362zm-2.998 23.38a23 23 0 0 0 3.629-.28 8.4 8.4 0 0 0 3.065-1.078 5.9 5.9 0 0 0 2.126-2.26 7.95 7.95 0 0 0 .802-3.829 7.94 7.94 0 0 0-.802-3.826 5.87 5.87 0 0 0-2.126-2.26 8.4 8.4 0 0 0-3.065-1.078c-1.2-.19-2.414-.284-3.629-.281h-8.496v14.892zM77.607 35.362c1-1.511 2.335-2.773 3.9-3.687a17.1 17.1 0 0 1 5.33-1.987c1.962-.392 3.956-.59 5.956-.59 1.84.001 3.678.13 5.501.383 1.763.227 3.478.731 5.083 1.494a10 10 0 0 1 3.767 3.098 8.65 8.65 0 0 1 1.459 5.254v18.725a37 37 0 0 0 .282 4.66 8.3 8.3 0 0 0 .974 3.34H99.826a14 14 0 0 1-.452-1.704q-.177-.88-.243-1.774a12.86 12.86 0 0 1-5.574 3.408 22.3 22.3 0 0 1-6.547.975 17.7 17.7 0 0 1-4.807-.625 11 11 0 0 1-3.904-1.949 9.04 9.04 0 0 1-2.61-3.34 11.3 11.3 0 0 1-.936-4.8 10.45 10.45 0 0 1 1.081-5.043 9 9 0 0 1 2.784-3.167 12.5 12.5 0 0 1 3.902-1.774 42 42 0 0 1 4.424-.935 74 74 0 0 1 4.392-.558c1.29-.115 2.569-.324 3.828-.625a6.7 6.7 0 0 0 2.648-1.219 2.67 2.67 0 0 0 .905-2.33 5.2 5.2 0 0 0-.524-2.54 3.8 3.8 0 0 0-1.391-1.461 5.45 5.45 0 0 0-2.02-.701q-1.23-.182-2.474-.176a7.5 7.5 0 0 0-4.597 1.254 5.57 5.57 0 0 0-1.951 4.174h-9.894c.055-2.046.657-4.04 1.744-5.776m19.546 13.95q-.996.327-2.023.525-1.08.207-2.262.35a42 42 0 0 0-2.371.351q-1.114.209-2.193.556a6.5 6.5 0 0 0-1.88.936 4.5 4.5 0 0 0-1.288 1.496 4.85 4.85 0 0 0-.484 2.296 4.7 4.7 0 0 0 .484 2.221c.31.583.767 1.074 1.326 1.425.6.362 1.26.61 1.95.732.758.139 1.528.208 2.3.207a8.73 8.73 0 0 0 4.525-.973 6.5 6.5 0 0 0 2.37-2.332c.489-.846.807-1.78.936-2.75q.152-1.105.173-2.22v-3.689a4.4 4.4 0 0 1-1.564.871M122.19 30.074v5.01h.211a11.35 11.35 0 0 1 4.876-4.558 14.1 14.1 0 0 1 6.129-1.427 16.8 16.8 0 0 1 6.514 1.08 9.63 9.63 0 0 1 4.005 2.99 11.6 11.6 0 0 1 2.058 4.66 29.3 29.3 0 0 1 .585 6.091v22.125h-9.894V45.73c.154-2.301-.327-4.6-1.391-6.646q-1.395-2.19-4.944-2.19-4.042 0-5.853 2.398-1.809 2.4-1.809 7.9v18.854h-9.893V30.074zM161.205 57.419a8.83 8.83 0 0 0 6.409 2.155 8.8 8.8 0 0 0 5.15-1.492 6.2 6.2 0 0 0 2.647-3.169h8.71q-2.091 6.471-6.411 9.257a18.9 18.9 0 0 1-10.451 2.782 20.6 20.6 0 0 1-7.66-1.355 15.9 15.9 0 0 1-5.783-3.858 17.3 17.3 0 0 1-3.656-5.985 21.8 21.8 0 0 1-1.287-7.654 21 21 0 0 1 1.322-7.513 17.7 17.7 0 0 1 3.765-6.02 17.8 17.8 0 0 1 5.816-4 18.7 18.7 0 0 1 7.491-1.46 17.15 17.15 0 0 1 8.014 1.774 16 16 0 0 1 5.607 4.765 19.6 19.6 0 0 1 3.172 6.819c.657 2.613.894 5.314.702 8.002h-25.984q.206 4.8 2.436 6.958m11.184-18.926a6.96 6.96 0 0 0-5.4-1.948 8.6 8.6 0 0 0-3.939.8 7.45 7.45 0 0 0-2.505 1.988 7.1 7.1 0 0 0-1.324 2.504c-.237.77-.388 1.563-.452 2.366h16.088a11.44 11.44 0 0 0-2.468-5.707M197.29 16.367h-9.894v49.68h9.894z"/><path fill="#2b2523" d="M199.955 19.359c.151-.348.368-.663.639-.929a2.981 2.981 0 0 1 2.099-.84c.391-.003.779.072 1.141.22a2.932 2.932 0 0 1 1.57 1.548c.163.366.246.76.243 1.16.003.405-.079.807-.243 1.177a3 3 0 0 1-.634.936 2.92 2.92 0 0 1-2.077.84 3 3 0 0 1-2.099-.84 3 3 0 0 1-.639-.936 3 3 0 0 1-.234-1.177 2.9 2.9 0 0 1 .234-1.16m.486 2.162c.113.3.288.572.511.801.218.228.48.408.77.53.307.132.637.197.971.194a2.39 2.39 0 0 0 2.235-1.524c.123-.32.185-.66.183-1.004.002-.336-.06-.67-.183-.984a2.4 2.4 0 0 0-2.235-1.514 2.4 2.4 0 0 0-1.741.723 2.3 2.3 0 0 0-.511.791 2.6 2.6 0 0 0-.185.984c-.004.343.059.684.185 1.003m2.428-2.713c.323-.026.645.06.911.244a.9.9 0 0 1 .298.74.82.82 0 0 1-.261.682 1.16 1.16 0 0 1-.648.257l.988 1.52h-.575l-.936-1.481h-.569v1.48h-.536v-3.442zm-.234 1.53q.171.002.342-.014a.9.9 0 0 0 .289-.066.45.45 0 0 0 .2-.17.6.6 0 0 0 .074-.318.47.47 0 0 0-.069-.276.43.43 0 0 0-.17-.159.8.8 0 0 0-.246-.073 2 2 0 0 0-.273-.02h-.71v1.094z"/></g></g></g><defs><clipPath id="a"><path fill="#fff" d="M0 0h206v83H0z"/></clipPath></defs></svg>
